public/assets/svgs/navbar/ember-consulting.svg

<svg height="42" viewBox="0 0 60 42" width="60" xmlns="http://www.w3.org/2000/svg"><g fill="none" fill-rule="evenodd" transform="translate(1 1)"><path d="m52 40h3v-13h-5z" fill="#fff"/><path d="m52 40h3v-13h-5z" stroke="#99a3a4" stroke-linecap="round" stroke-linejoin="round" stroke-width="2"/><path d="m6 40h-3v-13h5z" fill="#fff"/><path d="m6 40h-3v-13h5z" stroke="#99a3a4" stroke-linecap="round" stroke-linejoin="round" stroke-width="2"/><path d="m18 17h12v4h-12z" fill="#d4e7f0"/><path d="m18 17h12v4h-12z" stroke="#99a3a4" stroke-linecap="round" stroke-linejoin="round" stroke-width="2"/><path d="m20 13h12v4h-12z" fill="#d4e7f0"/><path d="m20 13h12v4h-12z" stroke="#99a3a4" stroke-linecap="round" stroke-linejoin="round" stroke-width="2"/><path d="m18 9h12v4h-12z" fill="#d4e7f0"/><path d="m18 9h12v4h-12z" stroke="#99a3a4" stroke-linecap="round" stroke-linejoin="round" stroke-width="2"/><path d="m55 17h-14c1.105 0 4 .896 4 2v2h6v-2c0-1.104 2.895-2 4-2z" stroke="#99a3a4" stroke-linecap="round" stroke-linejoin="round" stroke-width="2"/><path d="m0 21h58v6h-58z" fill="#fff"/><path d="m0 21h58v6h-58z" stroke="#99a3a4" stroke-linecap="round" stroke-linejoin="round" stroke-width="2"/><path d="m10 15h-3.6c-.282 1.13-.965 2.088-1.82 2.88-.438.404-.675 1.022-.544 1.683.169.854.972 1.437 1.843 1.437h4.642c.871 0 1.673-.583 1.843-1.437.131-.661-.106-1.279-.544-1.683-.855-.792-1.538-1.75-1.82-2.88z" fill="#d4e7f0"/><path d="m10 15h-3.6c-.282 1.13-.965 2.088-1.82 2.88-.438.404-.675 1.022-.544 1.683.169.854.972 1.437 1.843 1.437h4.642c.871 0 1.673-.583 1.843-1.437.131-.661-.106-1.279-.544-1.683-.855-.792-1.538-1.75-1.82-2.88zm-2 0v-8zm0-15h-3v4c0 1.65 1.35 3 3 3zm0 14 3-3zm0-12h3v1c0 1.65-1.35 3-3 3zm32 15h16z" stroke="#99a3a4" stroke-linecap="round" stroke-linejoin="round" stroke-width="2"/></g></svg>

<svg xmlns="http://www.w3.org/2000/svg" width="60" height="42" viewBox="0 0 60 42">
  <g fill="none" fill-rule="evenodd" transform="translate(1 1)">
    <polygon fill="#FFF" points="52 40 55 40 55 27 50 27"/>
    <polygon stroke="#99A3A4" stroke-linecap="round" stroke-linejoin="round" stroke-width="2" points="52 40 55 40 55 27 50 27"/>
    <polygon fill="#FFF" points="6 40 3 40 3 27 8 27"/>
    <polygon stroke="#99A3A4" stroke-linecap="round" stroke-linejoin="round" stroke-width="2" points="6 40 3 40 3 27 8 27"/>
    <polygon fill="#D4E7F0" points="18 17 30 17 30 21 18 21"/>
    <polygon stroke="#99A3A4" stroke-linecap="round" stroke-linejoin="round" stroke-width="2" points="18 17 30 17 30 21 18 21"/>
    <polygon fill="#D4E7F0" points="20 13 32 13 32 17 20 17"/>
    <polygon stroke="#99A3A4" stroke-linecap="round" stroke-linejoin="round" stroke-width="2" points="20 13 32 13 32 17 20 17"/>
    <polygon fill="#D4E7F0" points="18 9 30 9 30 13 18 13"/>
    <polygon stroke="#99A3A4" stroke-linecap="round" stroke-linejoin="round" stroke-width="2" points="18 9 30 9 30 13 18 13"/>
    <path stroke="#99A3A4" stroke-linecap="round" stroke-linejoin="round" stroke-width="2" d="M55,17 L41,17 C42.105,17 45,17.896 45,19 L45,21 L51,21 L51,19 C51,17.896 53.895,17 55,17 L55,17 Z"/>
    <polygon fill="#FFF" points="0 21 58 21 58 27 0 27"/>
    <polygon stroke="#99A3A4" stroke-linecap="round" stroke-linejoin="round" stroke-width="2" points="0 21 58 21 58 27 0 27"/>
    <path fill="#D4E7F0" d="M10,15 L6.4,15 C6.118,16.13 5.435,17.088 4.58,17.88 C4.142,18.284 3.905,18.902 4.036,19.563 C4.205,20.417 5.008,21 5.879,21 L10.521,21 C11.392,21 12.194,20.417 12.364,19.563 C12.495,18.902 12.258,18.284 11.82,17.88 C10.965,17.088 10.282,16.13 10,15 L10,15 Z"/>
    <path stroke="#99A3A4" stroke-linecap="round" stroke-linejoin="round" stroke-width="2" d="M10 15L6.4 15C6.118 16.13 5.435 17.088 4.58 17.88 4.142 18.284 3.905 18.902 4.036 19.563 4.205 20.417 5.008 21 5.879 21L10.521 21C11.392 21 12.194 20.417 12.364 19.563 12.495 18.902 12.258 18.284 11.82 17.88 10.965 17.088 10.282 16.13 10 15L10 15zM8 15L8 7 8 15zM8 0L5 0 5 4C5 5.65 6.35 7 8 7L8 0 8 0zM8 14L11 11 8 14zM8 2L11 2 11 3C11 4.65 9.65 6 8 6L8 2 8 2zM40 17L56 17 40 17z"/>
  </g>
</svg>
